images/partners/partner-3.svg

<svg width="72" height="16" viewBox="0 0 72 16" fill="none" xmlns="http://www.w3.org/2000/svg">
<path d="M11.5297 6.87586C11.3348 7.07196 11.1856 7.30863 11.0926 7.56897C10.9996 7.82935 10.9652 8.10701 10.9918 8.38221L10.9825 8.37295C11.0099 8.6969 10.9662 9.02285 10.8545 9.32818C10.7429 9.63346 10.566 9.91071 10.3361 10.1406C10.1062 10.3704 9.82898 10.5474 9.52365 10.659C9.21837 10.7707 8.89236 10.8144 8.56847 10.787L8.57772 10.7963C8.19026 10.7602 7.8011 10.8445 7.46327 11.0377C7.12548 11.2309 6.85548 11.5236 6.69014 11.8759C6.5248 12.2282 6.47208 12.6229 6.53925 13.0062C6.60647 13.3895 6.79022 13.7428 7.06552 14.0178C7.34081 14.2928 7.69423 14.4763 8.07758 14.5431C8.46098 14.6099 8.85559 14.5569 9.20772 14.3912C9.55985 14.2255 9.85228 13.9553 10.0452 13.6173C10.2381 13.2793 10.3221 12.8901 10.2857 12.5027L10.2954 12.5119C10.2681 12.188 10.3117 11.862 10.4234 11.5567C10.535 11.2514 10.712 10.9742 10.9418 10.7443C11.1717 10.5144 11.449 10.3375 11.7543 10.2259C12.0596 10.1142 12.3855 10.0705 12.7095 10.0979L12.6997 10.0886C13.0162 10.117 13.3348 10.0652 13.626 9.93771C13.917 9.81027 14.1713 9.6114 14.3651 9.35955C14.5589 9.10771 14.686 8.81097 14.7345 8.49694C14.7831 8.18287 14.7517 7.86165 14.6431 7.56295C14.5344 7.2643 14.3522 6.9979 14.1132 6.78843C13.8742 6.57897 13.5862 6.43322 13.2759 6.36471C12.9656 6.29621 12.6429 6.30711 12.338 6.39645C12.033 6.48583 11.7555 6.65071 11.5313 6.87586H11.5297Z" fill="#D1D1D1"/>
<path d="M7.73586 9.58368L7.72609 9.57442C8.00139 9.60215 8.27941 9.56836 8.5401 9.47548C8.80074 9.3826 9.03752 9.23299 9.23326 9.03741C9.42894 8.84182 9.57881 8.60515 9.67184 8.34456C9.76493 8.08397 9.79892 7.806 9.77141 7.53065L9.78118 7.53991C9.75382 7.21596 9.79753 6.89001 9.90913 6.58468C10.0208 6.2794 10.1977 6.00215 10.4276 5.77226C10.6575 5.54243 10.9347 5.36546 11.24 5.25386C11.5453 5.14219 11.8713 5.09851 12.1952 5.12585L12.1855 5.1166C12.573 5.15301 12.9622 5.06895 13.3002 4.87596C13.6383 4.68297 13.9085 4.39041 14.0741 4.03819C14.2397 3.68598 14.2926 3.29125 14.2256 2.90784C14.1587 2.52444 13.9751 2.17103 13.6998 1.89582C13.4246 1.62061 13.0712 1.43699 12.6878 1.37001C12.3044 1.30304 11.9097 1.35596 11.5575 1.52158C11.2052 1.68718 10.9127 1.95741 10.7197 2.29541C10.5267 2.63339 10.4427 3.02269 10.4791 3.4102L10.4698 3.40043C10.4972 3.72437 10.4536 4.05039 10.342 4.35574C10.2304 4.66108 10.0534 4.93838 9.82361 5.16828C9.59372 5.39812 9.31642 5.57508 9.01109 5.68668C8.7057 5.79828 8.3797 5.84189 8.05575 5.81448L8.06501 5.82425C7.78971 5.79653 7.51164 5.83032 7.251 5.9232C6.99036 6.01603 6.75358 6.16569 6.55784 6.36127C6.3621 6.55685 6.21229 6.79353 6.11921 7.05412C6.02617 7.3147 5.99218 7.59268 6.01969 7.86803L6.01044 7.85877C6.03769 8.18266 5.99393 8.50862 5.88228 8.8139C5.77057 9.11913 5.59366 9.39638 5.36382 9.62621C5.13397 9.85605 4.85675 10.033 4.55149 10.1447C4.24623 10.2563 3.92028 10.3001 3.59638 10.2728L3.60564 10.2821C3.21813 10.2457 2.82883 10.3297 2.49084 10.5227C2.15285 10.7157 1.88262 11.0083 1.71701 11.3605C1.5514 11.7127 1.49847 12.1074 1.56545 12.4908C1.63242 12.8742 1.81604 13.2277 2.09125 13.5028C2.36647 13.7781 2.71988 13.9617 3.10328 14.0287C3.48669 14.0956 3.88142 14.0427 4.23363 13.8771C4.58585 13.7115 4.87841 13.4413 5.0714 13.1033C5.26441 12.7653 5.34845 12.376 5.31204 11.9885L5.32181 11.9977C5.29445 11.6738 5.33816 11.3478 5.44981 11.0425C5.56141 10.7372 5.73838 10.46 5.96821 10.2301C6.1981 10.0003 6.47535 9.82329 6.78063 9.71169C7.08596 9.60004 7.41191 9.55632 7.73586 9.58368Z" fill="#D1D1D1"/>
<path d="M4.28909 8.55164C4.48402 8.35559 4.63325 8.11892 4.72616 7.85853C4.81906 7.59815 4.85333 7.32044 4.82652 7.04529L4.83629 7.05455C4.80893 6.73055 4.85262 6.40444 4.96433 6.09906C5.07604 5.79368 5.25307 5.51637 5.48306 5.28649C5.71305 5.05661 5.9904 4.8797 6.29584 4.76813C6.60127 4.65655 6.92738 4.61299 7.25138 4.64049L7.24161 4.63124C7.62897 4.66753 8.01813 4.58345 8.35596 4.39047C8.6938 4.19749 8.96385 3.905 9.1294 3.5529C9.29489 3.20079 9.34776 2.8062 9.2808 2.42294C9.21384 2.03968 9.03024 1.6864 8.75515 1.41129C8.48006 1.13618 8.12675 0.952622 7.7435 0.885651C7.36025 0.818676 6.96564 0.871555 6.61356 1.03706C6.26143 1.20257 5.96896 1.47266 5.776 1.81049C5.58299 2.14833 5.4989 2.53747 5.53521 2.92484L5.52595 2.91558C5.55331 3.2395 5.5096 3.56549 5.39795 3.87079C5.28629 4.17609 5.10939 4.45335 4.87953 4.68321C4.64967 4.91308 4.3724 5.09001 4.0671 5.20163C3.7618 5.31328 3.43582 5.357 3.11189 5.32964L3.12115 5.33889C2.80464 5.3105 2.48609 5.3625 2.19502 5.48999C1.90394 5.61748 1.64975 5.81641 1.45602 6.0683C1.26228 6.32015 1.13526 6.61689 1.08672 6.93092C1.03819 7.24499 1.06971 7.56621 1.17837 7.86481C1.28702 8.16345 1.4693 8.4298 1.7083 8.63922C1.9473 8.84869 2.2353 8.99438 2.54561 9.06289C2.85592 9.13134 3.17849 9.12038 3.48345 9.03105C3.7884 8.94167 4.06586 8.77679 4.29012 8.55164H4.28909Z" fill="#D1D1D1"/>
<path d="M20.2202 3.42188H21.7476V10.8548H20.2202V3.42188Z" fill="#D1D1D1"/>
<path d="M22.6126 8.31081C22.6105 7.77668 22.767 7.25385 23.0622 6.80869C23.3574 6.36352 23.778 6.01597 24.2709 5.8101C24.7638 5.60418 25.3067 5.5492 25.8309 5.65211C26.355 5.75502 26.8369 6.01113 27.2153 6.38811C27.5938 6.76503 27.8519 7.24583 27.9569 7.76958C28.0619 8.29333 28.0091 8.83647 27.8052 9.33018C27.6012 9.82384 27.2554 10.246 26.8114 10.5429C26.3674 10.8399 25.8453 10.9985 25.3111 10.9985C24.9565 11.0025 24.6047 10.9358 24.2762 10.8023C23.9477 10.6688 23.6491 10.4712 23.3978 10.221C23.1466 9.97072 22.9477 9.6729 22.8129 9.34494C22.6781 9.01698 22.61 8.66542 22.6126 8.31081ZM26.4821 8.31081C26.4757 8.08057 26.4016 7.85732 26.2691 7.66893C26.1365 7.4806 25.9514 7.33547 25.7368 7.2518C25.5222 7.16807 25.2877 7.14945 25.0626 7.19831C24.8375 7.24717 24.6318 7.36124 24.4712 7.52637C24.3106 7.69146 24.2022 7.90026 24.1597 8.12665C24.1171 8.35299 24.1422 8.58688 24.2318 8.79908C24.3214 9.01127 24.4716 9.1923 24.6635 9.31959C24.8555 9.44687 25.0808 9.51476 25.3111 9.51476C25.4688 9.51897 25.6257 9.49043 25.7719 9.43098C25.9181 9.37153 26.0504 9.28245 26.1604 9.16936C26.2704 9.05622 26.3558 8.92153 26.4111 8.77377C26.4665 8.62602 26.4907 8.46839 26.4821 8.31081Z" fill="#D1D1D1"/>
<path d="M34.0971 5.7647V10.599C34.0971 12.3095 32.763 13.0326 31.4089 13.0326C30.9322 13.0683 30.4548 12.972 30.0291 12.7543C29.6035 12.5365 29.246 12.2058 28.9959 11.7983L30.2991 11.0449C30.4042 11.2573 30.5717 11.4325 30.7791 11.5471C30.9866 11.6617 31.2241 11.7103 31.4598 11.6862C31.6105 11.7071 31.764 11.6938 31.9088 11.6474C32.0537 11.6009 32.1863 11.5225 32.2967 11.4179C32.4072 11.3133 32.4927 11.1853 32.547 11.0431C32.6013 10.901 32.6229 10.7485 32.6103 10.5969V10.1315C32.4314 10.3503 32.2038 10.5242 31.9456 10.6392C31.6873 10.7541 31.4058 10.8069 31.1235 10.7934C30.4517 10.7722 29.8146 10.4905 29.3469 10.0078C28.8792 9.5251 28.6177 8.87937 28.6177 8.2073C28.6177 7.53523 28.8792 6.88949 29.3469 6.40684C29.8146 5.92413 30.4517 5.6424 31.1235 5.62121C31.4058 5.60769 31.6873 5.6605 31.9456 5.77545C32.2038 5.89039 32.4314 6.06427 32.6103 6.2831V5.76367L34.0971 5.7647ZM32.6108 8.20807C32.6211 7.96193 32.5574 7.71832 32.4281 7.50864C32.2987 7.29892 32.1096 7.13275 31.885 7.03149C31.6604 6.93017 31.4107 6.89844 31.1679 6.9403C30.9251 6.98217 30.7004 7.09572 30.5226 7.26641C30.345 7.43705 30.2224 7.65696 30.1707 7.89785C30.1191 8.13874 30.1407 8.38961 30.2328 8.61811C30.325 8.84661 30.4834 9.04235 30.6876 9.18007C30.8919 9.3178 31.1327 9.39124 31.3791 9.39093C31.5396 9.40214 31.7006 9.37961 31.8519 9.32479C32.0031 9.26997 32.1412 9.18403 32.2572 9.07264C32.3732 8.96119 32.4647 8.8267 32.5256 8.67777C32.5865 8.52888 32.6155 8.36889 32.6108 8.20807Z" fill="#D1D1D1"/>
<path d="M34.9622 8.31081C34.9601 7.77668 35.1165 7.25385 35.4118 6.80869C35.707 6.36352 36.1277 6.01597 36.6205 5.8101C37.1134 5.60418 37.6563 5.5492 38.1805 5.65211C38.7046 5.75502 39.1865 6.01113 39.5649 6.38811C39.9434 6.76503 40.2015 7.24583 40.3065 7.76958C40.4115 8.29333 40.3587 8.83647 40.1548 9.33018C39.9509 9.82384 39.605 10.246 39.161 10.5429C38.717 10.8399 38.1949 10.9985 37.6607 10.9985C37.3061 11.0025 36.9543 10.9358 36.6258 10.8023C36.2973 10.6688 35.9987 10.4712 35.7474 10.221C35.4962 9.97072 35.2973 9.6729 35.1625 9.34494C35.0277 9.01698 34.9596 8.66542 34.9622 8.31081ZM38.8317 8.31081C38.8253 8.08057 38.7512 7.85732 38.6187 7.66893C38.4861 7.4806 38.301 7.33547 38.0864 7.2518C37.8718 7.16807 37.6373 7.14945 37.4122 7.19831C37.1871 7.24717 36.9814 7.36124 36.8208 7.52637C36.6602 7.69146 36.5518 7.90026 36.5093 8.12665C36.4667 8.35299 36.4918 8.58688 36.5814 8.79908C36.671 9.01127 36.8212 9.1923 37.0132 9.31959C37.2051 9.44687 37.4303 9.51476 37.6607 9.51476C37.8184 9.51897 37.9753 9.49043 38.1215 9.43098C38.2677 9.37153 38.4 9.28245 38.51 9.16936C38.62 9.05622 38.7054 8.92153 38.7607 8.77377C38.8161 8.62602 38.8403 8.46839 38.8317 8.31081Z" fill="#D1D1D1"/>
<path d="M41.0714 4.40083C41.0714 4.21957 41.1252 4.04239 41.2259 3.89168C41.3265 3.74097 41.4697 3.6235 41.6372 3.55414C41.8046 3.48477 41.9889 3.46662 42.1667 3.50199C42.3444 3.53735 42.5078 3.62463 42.6359 3.7528C42.7641 3.88097 42.8514 4.04426 42.8867 4.22204C42.9221 4.39982 42.9039 4.58408 42.8346 4.75155C42.7652 4.91901 42.6478 5.06214 42.497 5.16285C42.3463 5.26355 42.1692 5.31729 41.9879 5.31729C41.7456 5.31487 41.5139 5.21757 41.3425 5.0462C41.1712 4.87485 41.0738 4.64314 41.0714 4.40083ZM41.2257 5.76523H42.7536V10.8567H41.2236L41.2257 5.76523Z" fill="#D1D1D1"/>
<path d="M49.3488 8.31015C49.3664 8.64664 49.3174 8.9833 49.2044 9.30076C49.0916 9.61823 48.917 9.91024 48.6908 10.16C48.4647 10.4098 48.1913 10.6124 47.8866 10.7562C47.5819 10.8999 47.2517 10.9821 46.9152 10.9978C46.6321 11.0132 46.3492 10.9655 46.0868 10.8581C45.8245 10.7506 45.5894 10.5861 45.3985 10.3765V12.8919H43.8711V5.76443H45.3985V6.24272C45.5895 6.0333 45.8247 5.86894 46.0869 5.7616C46.3493 5.65422 46.6321 5.60655 46.9152 5.62198C47.2518 5.63766 47.582 5.71974 47.8868 5.86354C48.1917 6.00733 48.465 6.20996 48.6912 6.4598C48.9174 6.70964 49.0919 7.00175 49.2048 7.31932C49.3176 7.63684 49.3665 7.9736 49.3488 8.31015ZM47.8213 8.31015C47.8154 8.07188 47.7392 7.84066 47.6025 7.64538C47.4657 7.45016 47.2745 7.29958 47.0526 7.21256C46.8307 7.12549 46.5881 7.10579 46.355 7.15599C46.122 7.20613 45.909 7.3239 45.7426 7.49454C45.5762 7.66523 45.4638 7.88113 45.4195 8.11539C45.3752 8.34959 45.401 8.59162 45.4936 8.81127C45.5862 9.03092 45.7416 9.21832 45.9402 9.35014C46.1388 9.4819 46.3718 9.5522 46.6102 9.55215C46.7738 9.55945 46.9372 9.53204 47.0895 9.47176C47.2418 9.41154 47.3797 9.31974 47.494 9.20248C47.6084 9.08518 47.6966 8.94508 47.753 8.79131C47.8094 8.63754 47.8327 8.47354 47.8213 8.31015Z" fill="#D1D1D1"/>
<path d="M54.0622 9.32815C54.0622 10.4992 53.0445 10.998 51.9449 10.998C51.5006 11.0383 51.0545 10.9443 50.6643 10.7283C50.274 10.5123 49.9575 10.1842 49.7556 9.78638L51.0789 9.03295C51.1324 9.21681 51.2474 9.3768 51.4046 9.48609C51.5618 9.59543 51.7521 9.64752 51.9429 9.63364C52.309 9.63364 52.4926 9.52152 52.4926 9.31838C52.4926 8.75781 49.9876 9.05352 49.9876 7.29209C49.9876 6.18175 50.9246 5.62221 51.9835 5.62221C52.3816 5.60961 52.7755 5.70403 53.1247 5.8956C53.4739 6.08723 53.7655 6.36895 53.9686 6.71147L52.6654 7.41398C52.6084 7.28063 52.5132 7.16702 52.3918 7.08736C52.2705 7.00769 52.1285 6.96552 51.9835 6.96604C51.7186 6.96604 51.5556 7.06889 51.5556 7.25095C51.5577 7.83158 54.0622 7.44432 54.0622 9.32815Z" fill="#D1D1D1"/>
<path d="M59.6417 5.76367V10.8551H58.1143V10.3763C57.9379 10.5876 57.7142 10.754 57.4611 10.862C57.2081 10.97 56.9335 11.0165 56.6588 10.9976C55.6303 10.9976 54.756 10.2647 54.756 8.88899V5.76367H56.2834V8.66527C56.2706 8.78654 56.2844 8.90915 56.324 9.0245C56.3631 9.13991 56.4274 9.24533 56.5118 9.33343C56.5961 9.42153 56.6984 9.49019 56.8121 9.53467C56.9252 9.57916 57.0471 9.59839 57.169 9.59099C57.7291 9.59099 58.1158 9.26544 58.1158 8.54236V5.76521L59.6417 5.76367Z" fill="#D1D1D1"/>
<path d="M68.4001 7.7303V10.8561H66.8726V7.86248C66.8726 7.35333 66.6283 7.02779 66.1398 7.02779C65.6306 7.02779 65.3452 7.38419 65.3452 7.98488V10.8561H63.8183V7.86248C63.8183 7.35333 63.574 7.02779 63.0849 7.02779C62.5758 7.02779 62.2909 7.38419 62.2909 7.98488V10.8561H60.7634V5.7647H62.2909V6.2327C62.4493 6.02509 62.657 5.86041 62.8951 5.7538C63.1338 5.64714 63.395 5.60193 63.6553 5.62225C63.9165 5.60944 64.1767 5.66462 64.4107 5.78234C64.6442 5.90001 64.8433 6.07631 64.9888 6.2939C65.158 6.06623 65.3822 5.8852 65.6404 5.76774C65.8986 5.65028 66.1825 5.60024 66.4653 5.62225C67.6343 5.62276 68.4001 6.45745 68.4001 7.7303Z" fill="#D1D1D1"/>
<path d="M69.6918 5.73377C70.3177 5.73377 70.8253 5.22627 70.8253 4.60028C70.8253 3.97427 70.3177 3.4668 69.6918 3.4668C69.0659 3.4668 68.5583 3.97427 68.5583 4.60028C68.5583 5.22627 69.0659 5.73377 69.6918 5.73377Z" fill="#D1D1D1"/>
</svg>

<svg xmlns="http://www.w3.org/2000/svg" width="72" height="16" fill="none" viewBox="0 0 72 16"><path fill="#d1d1d1" d="M11.53 6.876a1.88 1.88 0 0 0-.538 1.506l-.01-.01a2.232 2.232 0 0 1-2.414 2.415l.01.01a1.891 1.891 0 1 0 1.708 1.706l.01.009a2.234 2.234 0 0 1 2.414-2.414l-.01-.01a1.889 1.889 0 1 0-1.169-3.212z"/><path fill="#d1d1d1" d="m7.736 9.584-.01-.01a1.868 1.868 0 0 0 2.045-2.043l.01.009a2.235 2.235 0 0 1 2.414-2.414l-.01-.01A1.891 1.891 0 1 0 10.48 3.41l-.01-.01a2.234 2.234 0 0 1-2.413 2.414l.009.01A1.868 1.868 0 0 0 6.02 7.868l-.01-.01a2.235 2.235 0 0 1-2.414 2.415l.01.01a1.891 1.891 0 1 0 1.706 1.706l.01.009a2.234 2.234 0 0 1 2.414-2.414"/><path fill="#d1d1d1" d="M4.29 8.552a1.88 1.88 0 0 0 .537-1.507l.01.01A2.234 2.234 0 0 1 7.25 4.64l-.01-.009a1.891 1.891 0 1 0-1.706-1.706l-.01-.01A2.234 2.234 0 0 1 3.113 5.33l.01.009A1.888 1.888 0 1 0 4.29 8.552M20.22 3.422h1.528v7.433H20.22zM22.613 8.31a2.699 2.699 0 1 1 2.698 2.688 2.67 2.67 0 0 1-2.698-2.687m3.87 0a1.172 1.172 0 1 0-1.172 1.205 1.14 1.14 0 0 0 1.171-1.204M34.097 5.765v4.834c0 1.71-1.334 2.434-2.688 2.434a2.6 2.6 0 0 1-2.413-1.235l1.303-.753a1.16 1.16 0 0 0 1.16.641 1.015 1.015 0 0 0 1.151-1.09v-.464a1.81 1.81 0 0 1-1.486.661 2.587 2.587 0 0 1 0-5.172 1.81 1.81 0 0 1 1.486.662v-.52zm-1.486 2.443a1.234 1.234 0 1 0-1.232 1.183 1.15 1.15 0 0 0 1.232-1.183M34.962 8.31a2.698 2.698 0 1 1 2.699 2.688 2.67 2.67 0 0 1-2.699-2.687m3.87 0a1.172 1.172 0 1 0-1.171 1.205 1.14 1.14 0 0 0 1.17-1.204M41.071 4.4a.916.916 0 1 1 .917.917.926.926 0 0 1-.917-.916m.155 1.365h1.528v5.092h-1.53zM49.349 8.31a2.556 2.556 0 0 1-2.434 2.688 1.91 1.91 0 0 1-1.517-.621v2.515h-1.527V5.764h1.527v.479a1.91 1.91 0 0 1 1.517-.621A2.556 2.556 0 0 1 49.35 8.31m-1.528 0a1.212 1.212 0 1 0-1.21 1.242 1.162 1.162 0 0 0 1.21-1.242M54.062 9.328c0 1.171-1.017 1.67-2.117 1.67a2.23 2.23 0 0 1-2.19-1.212l1.324-.753a.84.84 0 0 0 .864.6c.366 0 .55-.111.55-.315 0-.56-2.505-.264-2.505-2.026 0-1.11.937-1.67 1.995-1.67a2.23 2.23 0 0 1 1.986 1.09l-1.304.702a.74.74 0 0 0-.681-.448c-.265 0-.428.103-.428.285.002.58 2.506.193 2.506 2.077M59.642 5.764v5.091h-1.528v-.479a1.74 1.74 0 0 1-1.455.622c-1.029 0-1.903-.733-1.903-2.109V5.764h1.527v2.901a.836.836 0 0 0 .53.87.8.8 0 0 0 .356.056c.56 0 .947-.326.947-1.049V5.765zM68.4 7.73v3.126h-1.527V7.862c0-.509-.245-.834-.733-.834-.51 0-.795.356-.795.957v2.871h-1.527V7.862c0-.509-.244-.834-.733-.834-.51 0-.794.356-.794.957v2.871h-1.528V5.765h1.528v.468a1.56 1.56 0 0 1 1.364-.61 1.52 1.52 0 0 1 1.334.67 1.68 1.68 0 0 1 1.476-.67c1.17 0 1.935.834 1.935 2.107M69.692 5.734a1.134 1.134 0 1 0 0-2.267 1.134 1.134 0 0 0 0 2.267"/></svg>
